src/main/resources/icons/AllIcons/nodes/circlet.svg

<svg xmlns="http://www.w3.org/2000/svg" width="16" height="16" viewBox="0 0 16 16">
  <defs>
    <radialGradient id="circlet-a" cx="24.019%" cy="-35.847%" r="198.567%" fx="24.019%" fy="-35.847%" gradientTransform="matrix(.49447 0 0 1 .121 0)">
      <stop offset=".511%" stop-color="#D0FF59"/>
      <stop offset="46.923%" stop-color="#4FCFFF"/>
      <stop offset="100%" stop-color="#B166FF"/>
    </radialGradient>
    <radialGradient id="circlet-b" cx="14.15%" cy="-.234%" r="152.832%" fx="14.15%" fy="-.234%" gradientTransform="scale(1 .63867)">
      <stop offset="1.024%" stop-color="#FF6"/>
      <stop offset="47.949%" stop-color="#47F984"/>
      <stop offset="100%" stop-color="#00F7FF"/>
    </radialGradient>
    <radialGradient id="circlet-c" cx="113.659%" cy="-14.116%" r="215.853%" fx="113.659%" fy="-14.116%" gradientTransform="matrix(.72514 0 0 1 .312 0)">
      <stop offset=".748%" stop-color="#5D2FE0"/>
      <stop offset="49.585%" stop-color="#809BFF"/>
      <stop offset="90.474%" stop-color="#21DAFF"/>
    </radialGradient>
  </defs>
  <g fill="none" transform="translate(1 1)">
    <path fill="url(#circlet-a)" d="M8.98151081,6.07025622 C8.9816773,6.06966973 8.98187405,6.06908703 8.98204432,6.06850054 C9.69351297,6.18432595 10.4233216,6.24550973 11.1675238,6.24550973 C12.1102497,6.24550973 13.0297773,6.14726 13.9179335,5.96326595 C13.9233973,6.00424811 13.9258681,6.04561622 13.9252741,6.08699946 C13.9286568,5.9048027 13.8730162,5.7229427 13.7573762,5.57352865 C11.0556638,2.08289351 6.75246486,-0.0541081081 2.06145081,0.173845946 C1.89570216,0.181905405 1.74082432,0.241148108 1.61283405,0.336919459 C1.64769027,0.310887027 1.68406757,0.286867568 1.72264324,0.266612973 C4.77402649,1.2866 7.33823243,3.36747676 8.98151081,6.07025622 Z"/>
    <path fill="url(#circlet-b)" d="M8.98151081,6.07025622 C7.33823243,3.36747676 4.77402649,1.2866 1.72264324,0.266612973 C1.55485514,0.354707027 1.41891514,0.499879459 1.34423459,0.681580541 C0.518609189,2.69027784 0.151392973,4.92202541 0.36221027,7.23454919 C0.573027568,9.54706541 1.33774919,11.6756254 2.51298865,13.5019178 C2.62892,13.6820714 2.80899784,13.8048438 3.01021946,13.8538059 C5.86819081,12.1180027 8.03116432,9.35227243 8.98151081,6.07025622 Z"/>
    <path fill="url(#circlet-c)" d="M8.98204054,6.06850054 C8.03195892,9.35129243 5.86869784,12.1176886 3.01020811,13.8538059 C3.10692919,13.8773411 3.20813405,13.8852643 3.31019405,13.8715784 C7.96352541,13.2477422 11.808353,10.3695541 13.8348643,6.44994 C13.91376,6.29734757 13.9397849,6.12725892 13.9179297,5.96326595 C13.0297735,6.14725622 12.1102422,6.24550595 11.16752,6.24550595 C10.4233178,6.24550973 9.69350919,6.18432973 8.98204054,6.06850054 Z"/>
  </g>
</svg>

<svg xmlns="http://www.w3.org/2000/svg" width="16" height="16" viewBox="0 0 16 16"><rect id="frame" width="16" height="16" fill="none"/><defs><radialGradient id="a" cx="24.019%" cy="-35.847%" r="198.567%" fx="24.019%" fy="-35.847%" gradientTransform="matrix(.49447 0 0 1 .121 0)"><stop offset=".511%" stop-color="#D0FF59"/><stop offset="46.923%" stop-color="#4FCFFF"/><stop offset="100%" stop-color="#B166FF"/></radialGradient><radialGradient id="b" cx="14.15%" cy="-.234%" r="152.832%" fx="14.15%" fy="-.234%" gradientTransform="scale(1 .63867)"><stop offset="1.024%" stop-color="#FF6"/><stop offset="47.949%" stop-color="#47F984"/><stop offset="100%" stop-color="#00F7FF"/></radialGradient><radialGradient id="c" cx="113.659%" cy="-14.116%" r="215.853%" fx="113.659%" fy="-14.116%" gradientTransform="matrix(.72514 0 0 1 .312 0)"><stop offset=".748%" stop-color="#5D2FE0"/><stop offset="49.585%" stop-color="#809BFF"/><stop offset="90.474%" stop-color="#21DAFF"/></radialGradient></defs><g fill="none"><path fill="url(#a)" d="M8.982 6.07V6.07a13.592 13.592 0 0 0 4.936-.106.845.845 0 0 1-.16-.39A13.926 13.926 0 0 0 2.06.174a.814.814 0 0 0-.338.094A13.536 13.536 0 0 1 8.982 6.07z" transform="translate(1 1)"/><path fill="url(#b)" d="M8.982 6.07A13.536 13.536 0 0 0 1.722.267a.822.822 0 0 0-.378.415 13.874 13.874 0 0 0-.982 6.553c.211 2.312.976 4.44 2.151 6.267a.82.82 0 0 0 .497.352A13.529 13.529 0 0 0 8.982 6.07z" transform="translate(1 1)"/><path fill="url(#c)" d="M8.982 6.069a13.529 13.529 0 0 1-5.972 7.785.81.81 0 0 0 .3.018A13.926 13.926 0 0 0 13.835 6.45a.822.822 0 0 0 .083-.487 13.545 13.545 0 0 1-4.936.106z" transform="translate(1 1)"/></g></svg>
